src/images/dimTrackedIcon.svg

<svg clip-rule="evenodd" fill-rule="evenodd" stroke-linejoin="round" stroke-miterlimit="2" viewBox="0 0 30 33" xmlns="http://www.w3.org/2000/svg"><g transform="translate(-124.539 -376.021)"><path d="m124.539 376.021v23.062l14.841 9.627 14.84-9.226v-23.463z" fill="#f37423"/><circle cx="139.48" cy="390.761" fill="#562b0f" r="11.933"/><g fill="#f37423" fill-rule="nonzero"><path d="m138.3 143.2h45.5v45.5h-45.5z" transform="matrix(.04294373862 -.04294373862 .04294373862 .04294373862 125.43578691548 390.5469253068)"/><path d="m161 5-32.2 32.2 128.9 128.8-96.7 96.6-96.6-96.6 64.4-64.4-32.2-32.2-96.6 96.6 161 161 161.1-161z" transform="matrix(.0607322 0 0 .0607322 129.6995274558 380.6795825762)"/></g></g></svg>

<?xml version="1.0" encoding="UTF-8" standalone="no"?>
<!DOCTYPE svg PUBLIC "-//W3C//DTD SVG 1.1//EN" "http://www.w3.org/Graphics/SVG/1.1/DTD/svg11.dtd">
<svg width="100%" height="100%" viewBox="0 0 30 33" version="1.1" xmlns="http://www.w3.org/2000/svg" xmlns:xlink="http://www.w3.org/1999/xlink" xml:space="preserve" xmlns:serif="http://www.serif.com/" style="fill-rule:evenodd;clip-rule:evenodd;stroke-linejoin:round;stroke-miterlimit:2;">
    <g transform="matrix(1,0,0,1,-124.539,-376.021)">
        <path d="M124.539,376.021L124.539,399.083L139.38,408.71L154.22,399.484L154.22,376.021L124.539,376.021Z" style="fill:rgb(243,116,35);"/>
        <circle cx="139.48" cy="390.761" r="11.933" style="fill:rgb(86,43,15);"/>
        <g transform="matrix(0.0607322,0,0,0.0607322,122.136,357.843)">
            <g transform="matrix(0.7071,-0.7071,0.7071,0.7071,54.3334,538.494)">
                <rect x="138.3" y="143.2" width="45.5" height="45.5" style="fill:rgb(243,116,35);fill-rule:nonzero;"/>
            </g>
            <g transform="matrix(1,0,0,1,124.539,376.021)">
                <path d="M161,5L128.8,37.2L257.7,166L161,262.6L64.4,166L128.8,101.6L96.6,69.4L0,166L161,327L322.1,166L161,5Z" style="fill:rgb(243,116,35);fill-rule:nonzero;"/>
            </g>
        </g>
    </g>
</svg>
